!!!COM: Fanny (Mendelssohn) Hensel
!!!CNT: Deutsch
!!!TXO: Deutsch
!!!OTL: "Sehnsucht"
!!!LYR: Voss, Johann Heinrich
!!!OPR: 
!!!OPS: Op. 
!!!ONM: No. 
!!!ENC: Emily Thomas
!!!YOR: Hensel: 16 Songs Fanny Mendelssohn Hensel
!!!YOR: Alfred, 1995
!!!ODT: 1826/
!!NB: Vocal melody and text encoded.
**kern	**silbe
=1	=1
*clefG2	*
*k[b-e-a-]	*
*M3/4	*
*MM[Moderato]	*
2.r	.
=2	=2
4r	.
4r	.
{8g	{Ist
8g	es
=3	=3
4cc	Mit-
4b-	-leid,
8a-	Fi-
8g	-lo-
=4	=4
4g	-me-
4f#}	-la,}
{8fn	{dass
8ffn	so
=5	=5
4dd}	bang'}
4r	.
{8f	{aus
8g	dem
=6	=6
4f	Frucht-
4en	-hain,
8g	wo
8a-	der
=7	=7
4g	Mai-
4f	-duft
8a-	dich
8b-	um-
=8	=8
4a-	-wallt,
4g}	|}
{8b-	{wie
8cc	ein
=9	=9
4dd-	Grab-
4g	-lied
8g	dein
8a-	Ge-
=10	=10
4b-	-sang
4en	mir
8f	durch
8g	die
=11	=11
4a-	Da2mm-
4b-	-rung
8bn	sich
8bn	er-
=12	=12
4cc}	-giesst?}
4r	.
4r	.
=13	=13
2.r	.
=14	=14
4r	.
4r	.
{8cc	{Es
8cc	um-
=15	=15
4ff	-schwebt
4ee-	mich
8dd-	in
8cc	der
=16	=16
4cc	Da2mm-
4bn	-rung
8b-	die
8b-	Ge-
=17	=17
2gg}	stalt,}
{8b-	{die
8cc	im
=18	=18
4b-	Nacht-
4a-}	-traum}
{8cc	{und
8dd-	des
=19	=19
4cc	Tags
4bn	Traum
8dd	mir
8ee-	er
=20	=20
4dd	-scheint;
4cc}	|}
{8cc	{ich
8dd	ver-
=21	=21
4ee-	nehm',
4gg-}	ach!}
{8cc	{wie
8dd	sie
=22	=22
4ee-	auf-
4ggn}	-seufzt,}
{8cc	{und
8ee-	das
=23	=23
8aa-	Tra2n-
8ff	|
8dd	-lein
8cc	|
8bn	ihr
8cc	ent-
=24	=24
4bn}	-schleicht.}
4r	.
4r	.
=25	=25
2.r	.
=26	=26
4r	.
4r	.
{8g	{O
8g	mein
=27	=27
4cc	Schutz-
4b-}	-geist,}
{8a-	{wo
8g	mit
=28	=28
4g	Weh-
4f#	-mut
8fn	den
8fn	Ge-
=29	=29
2dd	sang
8f	Fi-
8g	-lo-
=30	=30
4f	-me-
4en}	-las}
{8g	{in
8a-	den
=31	=31
4g	Mai-
4f	-duft
8a-	sie
8b-	be-
=32	=32
4a-	-horcht,
4g	|
8b-	da
8cc	er-
=33	=33
2dd-	schein'
4g}	ihr}
=34	=34
4r	.
4r	.
{8cc	in
8dd-	der
=35	=35
2ee-	Da2mm-
4an}	-rung,}
=36	=36
4r	.
4r	.
{8g	{da
8g	er-
=37	=37
4cc	-schein'
4b-	ihr
8a-	in
8g	der
=38	=38
4g	Da2mm-
4f#}	-rung,}
{8fn	{wie
8fn	dein
=39	=39
2dd}	Freund,}
4r	.
=40	=40
{4a-	{bleich
4g	und
4f	be-
=41	=41
2.en}	-tra2nt!}
==	==
*-	*-
